packages/ui-icons/svg/Solid/expand-left.svg

<svg viewBox="0 0 1920 1920" version="1.1" xmlns="http://www.w3.org/2000/svg">
    <path d="M1807.12429,0.0564689274 L1807.12429,1920 L1694.18644,1920 L1694.18644,0.0564689274 L1807.12429,0.0564689274 Z M1468.25426,1.13686838e-13 L1468.25426,1919.94353 L282.406782,1919.94353 C189.007176,1919.94353 113,1844.04929 113,1750.53675 L113,1750.53675 L113,169.406782 C113,76.0071763 189.007176,1.13686838e-13 282.406782,1.13686838e-13 L282.406782,1.13686838e-13 L1468.25426,1.13686838e-13 Z M830.607129,661.138202 L588.242493,903.502838 L1242.37855,903.502838 L1242.37855,1016.44069 L588.242493,1016.44069 L830.607129,1258.91827 L750.760066,1338.76533 L371.966501,959.971766 L750.760066,581.291138 L830.607129,661.138202 Z" stroke="none" stroke-width="1" fill-rule="evenodd"/>
</svg>

<svg viewBox="0 0 1920 1920" version="1.1" xmlns="http://www.w3.org/2000/svg">
    <path d="M1694.186 1920V.056h112.938V1920h-112.938zM113 169.407C113 76.007 189.007 0 282.407 0h1185.847V1919.944H282.407c-93.4 0-169.407-75.895-169.407-169.407V169.407zm717.607 491.731L588.242 903.503h654.137v112.938H588.242l242.365 242.477-79.847 79.847-378.793-378.793 378.793-378.68 79.847 79.846z" stroke="none" stroke-width="1" fill-rule="evenodd"/>
</svg>
